public/images/js-gray.svg

<svg width="101" height="101" viewBox="0 0 101 101" fill="none" xmlns="http://www.w3.org/2000/svg">
<g id="Asset 126" clip-path="url(#clip0_304_13327)">
<g id="Group">
<path id="Vector" d="M100.552 0.594238H0.552246V100.594H100.552V0.594238Z" fill="#D1D1D1"/>
<path id="Vector_2" d="M67.7222 78.7242C69.7222 82.0042 72.3622 84.4242 76.9922 84.4242C80.8922 84.4242 83.3822 82.4842 83.3822 79.7942C83.3822 76.5942 80.8222 75.4242 76.5522 73.5942L74.2022 72.5942C67.4222 69.7042 62.9222 66.0842 62.9222 58.4342C62.9222 51.4342 68.2922 46.0242 76.6822 46.0242C82.6822 46.0242 86.9522 48.1042 90.0522 53.5442L82.7322 58.2442C81.1222 55.3542 79.3822 54.2442 76.7322 54.2442C74.0822 54.2442 72.2322 55.9942 72.2322 58.2442C72.2322 61.0642 73.9822 62.2442 78.0122 63.9542L80.3622 64.9542C88.3622 68.3842 92.8522 71.8742 92.8522 79.7242C92.8522 88.1842 86.2122 92.8142 77.2822 92.8142C68.5522 92.8142 62.9222 88.6542 60.1622 83.2042L67.7222 78.7242ZM34.5522 79.5342C36.0322 82.1542 37.3722 84.3642 40.6022 84.3642C43.6822 84.3642 45.6022 83.1642 45.6022 78.4642V46.5142H55.0022V78.5942C55.0022 88.3242 49.2922 92.7442 41.0022 92.7442C33.4722 92.7442 29.1222 88.8542 26.9022 84.1642L34.5522 79.5342Z" fill="black"/>
</g>
</g>
<defs>
<clipPath id="clip0_304_13327">
<rect width="100" height="100" fill="white" transform="translate(0.552246 0.594238)"/>
</clipPath>
</defs>
</svg>

<svg xmlns="http://www.w3.org/2000/svg" width="101" height="101" fill="none"><g clip-path="url(#a)"><path fill="#D1D1D1" d="M100.552.594h-100v100h100v-100Z"/><path fill="#000" d="M67.722 78.724c2 3.28 4.64 5.7 9.27 5.7 3.9 0 6.39-1.94 6.39-4.63 0-3.2-2.56-4.37-6.83-6.2l-2.35-1c-6.78-2.89-11.28-6.51-11.28-14.16 0-7 5.37-12.41 13.76-12.41 6 0 10.27 2.08 13.37 7.52l-7.32 4.7c-1.61-2.89-3.35-4-6-4s-4.5 1.75-4.5 4c0 2.82 1.75 4 5.78 5.71l2.35 1c8 3.43 12.49 6.92 12.49 14.77 0 8.46-6.64 13.09-15.57 13.09-8.73 0-14.36-4.16-17.12-9.61l7.56-4.48Zm-33.17.81c1.48 2.62 2.82 4.83 6.05 4.83 3.08 0 5-1.2 5-5.9v-31.95h9.4v32.08c0 9.73-5.71 14.15-14 14.15-7.53 0-11.88-3.89-14.1-8.58l7.65-4.63Z"/></g><defs><clipPath id="a"><path fill="#fff" d="M.552.594h100v100h-100z"/></clipPath></defs></svg>
